X: 26
T: No_121_Song_Before_an_Expedition_to_Obtain_Salt.krn
N: Derived from No_121_Song_Before_an_Expedition_to_Obtain_Salt.krn
%%abc-version 2.0
%%abcx-abcm2ps-target-version 5.9.1 (29 Sep 2008)
%%abc-creator hum2abc beta
%%abcx-conversion-date 2019/03/15 08:37:56
%%humdrum-veritas 1573581348
%%humdrum-veritas-data 3922318421
%%linebreak <none>
%%barnumbers 0
L: 1/8
M: 3/4
K: Gb clef=bass
B,2 [I:setbarnb 1]| 
C4B,F, ||  
[M:2/4]G,3F, | 
E,2G,F, ||  
[M:3/4]G,4F,3/E,/ ||  
[M:2/4]E,3F,/F,/ | 
E,E,- E,C,/B,,/ ||  
[M:3/4]B,,4G,F, ||  
[M:5/8]G,G,-G,/F,/E,F,/E,/ ||  
[M:3/4]F,/F,3/E,2C,/B,,/ z ||  
[M:2/4]E,E,/E,/ E,C,/B,,/ | 
E,E,/E,/E,2 | 
B,,4 |]  



